X:1
T:Title
%%score { ( 1 3 ) | ( 2 4 ) }
L:1/8
M:4/4
K:F
V:1 treble nm="Grand Piano"
V:3 treble 
V:2 bass 
V:4 bass 
V:1
 z4 z2[Q:1/4=88] F>F |[M:17/16] FFA>GAc3/2[CF]>[DG] |[M:4/4] A>c G>A F2 F>F |[M:13/16] F>FAGAc3/2 | %4
[M:1/4] cG |[M:4/4] G>G A>G [EG]2 [GB][GB] | %6
[M:35/32] [GB]>[GB][GB][Ac][Bd]/ [Ac]2- [Ac]/(3:2:4A3/4-A/8A3/2-A/4 | %7
[M:7/8] z z/ [GB]/-[GB]/4 z/4 z/ z/ [FA]/-[FA]/4 z/4 z/ z2 |[M:1/4] (3:2:2A3/2A3/2 | %9
[M:35/32] z2 A3/2-A/4 z2 z3/4 F-F/4 z |[M:9/8] CFG- G/A/ G2- GB[Ed] | %11
[M:31/32] c/4-c/4-c/-<c/A/ z/4 z/4 z/4 z/4 z/4 z/4 z/ F/F/4-F/4-F/4-F/4-F/4-F/4-F/4-F/4-F/4-F/-<F/ |] %12
V:2
 z4 z2 [F,A,C]>[F,A,C] |[M:17/16] [F,A,C][F,A,C][F,CF]>[F,B,C][F,CF][F,A,F]3/2[A,,F,]>[B,,F,] | %2
[M:4/4] [C,F,C]>[C,A,C] [C,B,C]>[C,C] [F,A,C]2 [F,A,C]>[F,A,C] | %3
[M:13/16] [F,A,C]>[F,A,C][F,CF][F,B,C][K:treble][F,CF][F,A,F]3/2 |[M:1/4] [G,EG][G,CE] | %5
[M:4/4] [G,CE]>[G,CE] [G,=B,F]>[G,B,F][K:bass] [C,C]2 [C,C][C,C] | %6
[M:35/32] [C,C]>[C,C][C,C][C,C][F,C]/ [F,C]2- [F,C]/(3:2:4[F,CF]3/4-[F,CF]/8[F,CF]3/2-[F,CF]/4 | %7
[M:7/8] C>C z z/ C/ z z2 |[M:1/4] (3:2:2[F,CF]3/2[F,CF]3/2 |[M:35/32] z2 [F,CF]3/2-[F,CF]/4 z4 z | %10
[M:9/8] [C,F,A,][C,A,C][C,B,C]- [C,B,C]/[C,CD]/ [C,B,C]2- [C,B,C][C,G,C][C,B,] | %11
[M:31/32] z/4 z/4 z/4 z/4 z/4 z/4 z/ C/4-C/4-C/4-C/4-C/-<C/ z/4 z/4 z/4 z/4 z/4 z/4 z/4 z/4 z/4 z/4 z/4 z/4 z/4 z/ |] %12
V:3
 x8 |[M:17/16] x17/2 |[M:4/4] x8 |[M:13/16] x13/2 |[M:1/4] x2 |[M:4/4] x8 |[M:35/32] x35/4 | %7
[M:7/8] B2 [FA]2 [EG]3 |[M:1/4] x2 | %9
[M:35/32] B3/2B3/4 z z/4 (3:2:8[DG]3/4-[DG]/8[DF]3/8-[DF]/16 z3/8 z/16 [B,D]3/4-[B,D]/8-[B,D]-[B,-D]/<[B,D-]/D/4D-D/4 | %10
[M:9/8] x9 | %11
[M:31/32] z/4 z/4 z/4 z/4 z/4 z/4 z/ G/4-G/4-G/4-G/4-G/4-G/4-G/-<G/ z/4 z/4 z/4 z/4 z/4 z/4 z/4 z/4 z/4 z/4 z/4 z/ |] %12
V:4
 x8 |[M:17/16] x17/2 |[M:4/4] x8 |[M:13/16] x4[K:treble] x5/2 |[M:1/4] x2 |[M:4/4] x4[K:bass] x4 | %6
[M:35/32] x35/4 | %7
[M:7/8] [G,E]3/2-[E,-G,E]/4E,/4-[E,F,-C-]/<[F,C]/- [F,C]/F,/-[C,-F,C-]/<[C,C]/- [C,C]2 | %8
[M:1/4] x2 | %9
[M:35/32] [F,DF]3/2[F,DF]3/4 z z/4 (3:2:8[B,,B,]3/4-[B,,B,]/8[B,,F,]3/8-[B,,F,]/16 z3/8 z/16 [B,,F,]3/4-[B,,F,]/8-[B,,F,]-[B,,F,-]/<[B,,-F,B,-]/[B,,B,]/4[B,,F,B,]-[B,,F,B,]/4 | %10
[M:9/8] x9 | %11
[M:31/32] [F,A,F]/4-[F,A,F]/4-[F,A,F]/-<[F,A,F]/[F,CF]/[C,B,]/4-[C,B,]/4-[C,B,]/4-[C,B,]/4-[C,B,]/-<[C,B,]/-[C,F,A,B,C]/[F,A,C]/4-[F,A,C]/4-[F,A,C]/4-[F,A,C]/4-[F,A,C]/4-[F,A,C]/4-[F,A,C]/4-[F,A,C]/4-[F,A,C]/4-[F,A,C]/-<[F,A,C]/ |] %12

